X:1
T:The Well-Tempered Clavier Part I-III
T:BWV 848    (A = 415Hz)
T:Johann Sebastian Bach
%%score { ( 1 4 ) | ( 2 3 ) }
L:1/8
Q:1/4=144
M:3/8
K:C#
V:1 treble nm="ハープシーコード"
V:4 treble 
V:2 bass 
V:3 bass 
V:1
"^Vivace" e/c/G/c/e/c/ | f/c/f/c/f/c/ | g/c/g/c/g/c/ | a/c/a/c/a/c/ | g/c/g/c/g/c/ | f/e/d/e/f/d/ | %6
 e/d/c/d/e/c/ | d/e/d/c/B/A/ | G2 g | A2 g | B2 g | c2 g | B2 g | A2 ^^f | G2 g- | gf/e/d/e/ | %16
 f/d/A/d/f/d/ | g/d/g/d/g/d/ | a/d/a/d/a/d/ | =b/d/b/d/b/d/ | a/d/a/d/a/d/ | g/f/e/f/g/e/ | %22
 f/e/d/e/f/d/ | e/f/e/d/c/B/ | A2 a | B2 a | c2 a | d2 a | c2 a | B2 ^^g | A2 a- | ag^^f | gGg- | %33
 gfe | f/e/d/e/f/d/ | ^^g/^^f/e/f/g/e/ | a/^^g/a/b/a/^g/ | ^^f/e/d/e/f/d/ | gGg- | gfe | fFf- | %41
 fed | e/d/c/d/e/c/ | ^^f/e/d/e/f/d/ | g/^^f/g/a/g/^f/ | e/d/c/d/e/c/ | F2 f | G2 f | A2 f | %49
 =B2 f | A2 f | G2 e | F2 f- | fe/d/c/d/ | e/c/G/c/e/c/ | f/c/f/c/f/c/ | g/c/g/c/g/c/ | %57
 a/c/a/c/a/c/ | g/c/g/c/g/c/ | f/e/d/e/f/d/ | e/d/c/d/e/c/ | d/e/d/c/B/A/ | B/G/ z/ G/ z/ G/ | %63
 B/G/ z/ G/ z/ G/ | c/G/ z/ G/ z/ G/ | c/G/ z/ G/ z/ G/ | f/G/ z/ G/ z/ G/ | f/G/ z/ G/ z/ G/ | %68
 e/G/ z/ G/ z/ G/ | e/G/ z/ G/ z/ G/ | ^^f/A/ z/ A/ z/ A/ | ^^f/A/ z/ A/ z/ A/ | g/B/ z/ B/ z/ B/ | %73
 g/B/ z/ B/ z/ B/ | g/c/ z/ G/ z/ c/ | z/ e/ z/ g/ z/ a/ | =b/a/g/f/e/d/ | e/f/g/=b/a/g/ | %78
 a/d/ z/ F/ z/ A/ | z/ d/ z/ f/ z/ g/ | =a/g/f/=e/d/c/ | d/=e/f/=a/g/f/ | g/c/ z/ =e/ z/ c/ | %83
 z/ =A/ z/ F/ z/ d/ | z/ G/ z/ =E/ z/ c/ | z/ =A/ z/ ^F/ z/ D/ | %86
[I:staff +1] B,/G,/[I:staff -1] z/[I:staff +1] G,/[I:staff -1] z/[I:staff +1] G,/ | %87
 B,/G,/[I:staff -1] z/[I:staff +1] G,/[I:staff -1] z/[I:staff +1] G,/ | %88
 C/G,/[I:staff -1] z/[I:staff +1] G,/[I:staff -1] z/[I:staff +1] G,/ | %89
 C/G,/[I:staff -1] z/[I:staff +1] G,/[I:staff -1] z/[I:staff +1] G,/ | %90
[I:staff -1] F/[I:staff +1]G,/[I:staff -1] z/[I:staff +1] G,/[I:staff -1] z/[I:staff +1] G,/ | %91
[I:staff -1] F/[I:staff +1]G,/[I:staff -1] z/[I:staff +1] G,/[I:staff -1] z/[I:staff +1] G,/ | %92
[I:staff -1] E/[I:staff +1]G,/[I:staff -1] z/[I:staff +1] G,/[I:staff -1] z/[I:staff +1] G,/ | %93
[I:staff -1] E/[I:staff +1]G,/[I:staff -1] z/[I:staff +1] G,/[I:staff -1] z/[I:staff +1] G,/ | %94
[I:staff -1] ^^F/[I:staff +1]A,/[I:staff -1] z/[I:staff +1] A,/[I:staff -1] z/[I:staff +1] A,/ | %95
[I:staff -1] ^^F/[I:staff +1]A,/[I:staff -1] z/[I:staff +1] A,/[I:staff -1] z/[I:staff +1] A,/ | %96
[I:staff -1] z z/[I:staff +1] F,/=A,/B,/ |[I:staff -1] z z/ A/c/=e/ | B/d/f/d/B/G/ | z3 | %100
 E/G/c/G/E/C/ | z3 | z [EGc][DGB] | [CGc]3 |[M:4/4][Q:1/4=120]"^Fuga" z2 z G A/G/F/G/ ec | %105
 GF/E/ Fd EcDB | Cc/B/ c/d/e/f/ g/^^f/e/^^f/ g/^f/e/d/ | e2- e/d/c/e/ d/c/B/d/ c/B/c/A/ | %108
 A/B/d f4 e2- | e2 d2- d2 Bd- | dG e3 e/c/ A2- | AA d3 d/B/ G2- | GG c2- c/B/c/A/ a2- | %113
 a/g/^^f/a/ g/d/e/^f/ e/d/c/d/ bg | dc/B/ ca BgA^^f | G/A/B/c/ B/A/G/B/ e/d/^^c/e/ g/f/e/g/ | %116
 g/4a/4=b/a/g/ f/e/d/^^c/ d/f/e/d/ ^^c/e/A/G/ | F/E/D/^^C/ D/E/F/G/ A/G/F/G/ A/G/F/E/ | %118
 F2- F/E/D/F/ E/D/C/E/ D/C/D/B,/ | C/E/F/E/ c2- c/B/c/A/ a2- | a/D/E/D/ B2- B/A/B/G/ g2- | %121
 g/C/D/C/ A2- A/G/A/^^F/ ^^f2- | f/^^d/e/c/ A4 G2- | G2 ^^F2- FE ^^D^^F | %124
 B/A/G/B/ A/G/^^F/A/ G/E/c/A/ B/G/f/^^d/ | ^^d/e/^^a/b/ d>e e2 z e | =B/A/G/A/ e^^c GF/E/ Fd | %127
 =A/G/F/G/ dB FE/D/ E/G/c/d/ | e/d/c/d/ bg dc/B/ ca | Bg A^^f G/D/E/^^F/ G/A/B/G/ | %130
 c/B/A/B/ c/B/A/G/ A2- A/G/F/A/ | G/F/E/G/ F/E/D/F/ EG c2 | z =e/c/ A2 z A/c/ e2 | %133
 dgc^^f Gg/^^f/ g/a/=b/g/ | e/f/g/e/ c/d/e/c/ A/B/c/A/ f/g/a/f/ | %135
 d/e/f/d/ B/c/d/B/ G/A/B/G/ e/f/g/e/ | ^^c/d/e/c/ A/B/^^c/A/ F/G/A/F/ d/e/f/d/ | %137
 B/c/d/B/ G/A/B/G/ E/F/G/E/ C/E/G/A/ | =B/A/G/A/ fc AG/F/ G/C/E/G/ | A/G/F/G/ ec GF/E/ F/B,/D/F/ | %140
 G/F/E/F/ dB FE/D/ E/G/A/B/ | c/d/e/d/ f/e/d/c/ a/4g/4f/4g/4a/4g/4a/4g/4 a/4g/4a/4g/4a/4g/4a/4g/4 | %142
 g/g/f/g/ e/g/d/g/ c/g/B/A/ B/d/e/f/ | g/f/e/g/ d/g/c/g/ B/g/A/G/ A/c/d/e/ | %144
 f/e/d/e/ c/d/B/d/ A/d/G/^^F/ G/B/c/d/ | e/f/g/a/ BG A/G/F/G/ ec | GF/E/ Fd EcDB | %147
 Cc/B/ c/d/e/f/ g/f/e/f/ g/f/e/d/ | e2- e/d/c/e/ d/c/B/d/ c/B/c/A/ | Bd f4 e2- | e2 d2- dc Bd- | %151
 dG c=B A4- | AA/F/ D2 DD G2- | GG/E/ ^^C2 CA, F2- | F/E/F/D/ d2 d/c/B/d/ c/G/A/=B/ | %155
 A/G/F/G/ ec GF/E/ Fd | EcDB C/E/F/G/ A/B/c/d/ | =e/d/c/d/ e/^^f/g/a/ c/B/A/G/ dF | %158
 E[CGc] DB !fermata!c4 |] %159
V:2
 C,2 C | D,2 C | E,2 C | F,2 C | E,2 C | D,2 B, | C,2 C- | CB,/A,/G,/A,/ | B,/G,/D,/G,/B,/G,/ | %9
 C/G,/C/G,/C/G,/ | D/G,/D/G,/D/G,/ | E/G,/E/G,/E/G,/ | D/G,/D/G,/D/G,/ | C/B,/A,/B,/C/A,/ | %14
 B,/A,/G,/A,/B,/G,/ | A,/=B,/A,/G,/G,/F,/ | D,2 D | E,2 D | F,2 D | G,2 D | F,2 D | E,2 ^^C | %22
 D,2 D- | DC/B,/A,/B,/ | C/A,/E,/A,/C/A,/ | D/A,/D/A,/D/A,/ | E/A,/E/A,/E/A,/ | F/A,/F/A,/F/A,/ | %28
 E/A,/E/A,/E/A,/ | D/C/B,/C/D/B,/ | C/B,/A,/B,/C/A,/ | D/C/B,/C/D/B,/ | E/D/E/F/E/^D/ | %33
 ^^C/B,/A,/B,/C/A,/ | DD,D- | DCB, | CC,C | CB,A, | B,/A,/G,/A,/B,/G,/ | ^^C/B,/A,/B,/C/A,/ | %40
 D/^^C/D/E/D/^C/ | B,/A,/G,/A,/B,/G,/ | CC,C- | C=B,A, | =B,=B,,=B,- | B,A,G, | %46
 A,/F,/C,/F,/A,/F,/ | =B,/F,/B,/F,/B,/F,/ | C/F,/C/F,/C/F,/ | D/F,/D/F,/D/F,/ | C/F,/C/F,/C/F,/ | %51
 =B,/A,/G,/A,/B,/G,/ | A,/G,/F,/G,/A,/F,/ | G,/A,/G,/F,/E,/D,/ | C,2 C | D,2 C | E,2 C | F,2 C | %58
 E,2 C | D,2 C | C,2 C | F,E,D, | G,FD | G,FD | G,EC | G,EC | G,DB, | G,DB, | G,EC | G,EC | G,=EC | %71
 G,=EC | G,DB, | G,DB, | E,EC | G,E,D, | ^^C,E,A, | ^^CEG | FDA, | F,D,C, | B,,D,G, | B,DF | %82
 =EC=A, | F,DB, | =E,C=A, | F,D,B,, | G,,F,D, | G,,F,D, | G,,E,C, | G,,E,C, | G,,D,B,, | G,,D,B,, | %92
 G,,E,C, | G,,E,C, | G,,=E,C, | G,,=E,C, | G,,/B,,/D,/ z z/ | %97
[I:staff -1] C/=E/^^F/[I:staff +1] z z/ | G,, z2 | F/D/B,/G,/B,/D/ | G, z2 | %101
 A,/^^F,/=E,/C,/E,/F,/ | z [C,^E,G,][D,F,G,] | [E,G,]3 |[M:4/4] z8 | z8 | z8 | z8 | %108
 z2 z G, A,/G,/F,/G,/ EC | G,F,/E,/ F,D E,CD,B, | C,C/B,/ C/D/E/C/ A,/B,/C/A,/ ^^F,/G,/A,/^^F,/ | %111
 B,,B,/A,/ B,/C/D/B,/ G,/A,/B,/G,/ E,/^^F,/G,/E,/ | %112
 A,,A,/G,/ A,/B,/C/A,/ ^^F,/G,/A,/F,/ D,/E,/^^F,/D,/ | G,,G,/A,/ B,G, C2 B,2 | A,G, ^^F,2 G,2 D,2 | %115
 B,[I:staff -1]D G2[I:staff +1] z =B,/G,/ E,2 | z E,/G,/ =B,2 A,=B, A,^^C, | D,2 z4 z2 | %118
 E,D,/C,/ D,B, C,A, B,,^^G, | A,,A,/^^G,/ A,/B,/C/A,/ ^^F,/^G,/A,/F,/ D,/E,/^^F,/D,/ | %120
 G,,G,/^^F,/ G,/A,/B,/G,/ E,/F,/G,/E,/ C,/D,/E,/C,/ | %121
 ^^F,,^^F,/E,/ F,/G,/A,/F,/ ^^D,/E,/F,/D,/ B,,/^^C,/D,/B,,/ | %122
 E,,/^^F,,/G,,/A,,/ B,,/^^C,/^^D,/B,,/ E,/^D,/^C,/D,/ E,/D,/C,/B,,/ | %123
 C,2- C,/B,,/A,,/C,/ B,,/A,,/G,,/B,,/ A,,/G,,/A,,/^^F,,/ | E,3 ^^D, E,^^D, E,A, | %125
 G,^^F,/E,/ F,A, G,/A,/B,/G,/ E,/^F,/G,/E,/ | %126
 ^^C,/D,/E,/C,/ A,,/C,/E,/A,/ D,/F,/A,/C/[I:staff -1] D/E/F/D/ | %127
[I:staff +1] B,/C/D/B,/ G,2- G,/-G,/A,/B,/ C z | G,/^^F,/E,/F,/ G,/F,/E,/D,/ E,2- E,/D,/C,/E,/ | %129
 D,/C,/B,,/D,/ C,/B,,/A,,/C,/ B,,D, F,2- | F,2 E,4 D,2- | D,C, D,G,, C,/D,/E,/F,/ E,/D,/C,/E,/ | %132
 A,/G,/^^F,/A,/ C/=B,/A,/C/ =ED/C/ B,/A,/G,/^^F,/ | %133
 G,/=B,/A,/G,/ ^^F,/E,/D,/C,/ =B,,/C,/D,/B,,/ G,,G,/=F,/ | z =B,/G,/ E, z2 A,/F,/ D, z | %135
 z A,/F,/ D, z2 G,/E,/ ^^C, z | z G,/E,/ ^^C, z2 E,/D,/ B,, z | z F,/D,/ B,, z4 z | %138
 z =B,/C,/ A,/C,/G,/C,/ F,/C,/E,/D,/ E,G,, | z A,/C,/ G,/C,/F,/C,/ E,/C,/D,/C,/ D,G,, | %140
 z G,/G,,/ F,/G,,/E,/G,,/ D,/G,,/C,/B,,/ C,/G,,/E,/D,/ | %141
 E,/G,,/G,/F,/ G,/G,,/A,/G,,/ B,/C/D/B,/ G,/B,/D/E/ | %142
[I:staff -1] F/E/D/E/ cG ED/C/ D/[I:staff +1]G,/[I:staff -1]C/D/ | %143
 E/D/C/D/ BG DC/B,/ C/[I:staff +1]G,/[I:staff -1]B,/C/ | %144
 D/C/B,/C/ A^^F[I:staff +1] CB,/A,/ B,/G,/A,/B,/ | C/D/E/D/ F/E/D/C/ FA,/B,/ C/B,/A,/G,/ | %146
 A,2- A,/G,/F,/A,/ G,/F,/E,/G,/ F,/E,/F,/D,/ | E,>G, A,/B,/C- C2 B,2- | B,2 A,2- A,G,A,D, | %149
 G,2 z G, A,/G,/F,/G,/ EC | G,F,/E,/ F,D E,C D,B, | %151
 C,/G,,/C,/D,/ E,/F,/G,/E,/ F,/F,,/F,/E,/ F,/G,/A,/F,/ | %152
 D,/E,/F,/D,/ B,,/C,/D,/B,,/ E,,E,/D,/ E,/F,/G,/E,/ | %153
 ^^C,/D,/E,/C,/ A,,/B,,/^^C,/A,,/ D,,D,/C,/ D,/=E,/F,/D,/ | %154
 B,,/C,/D,/B,,/ G,,/A,,/B,,/G,,/ C,,C,/D,/ E,C, | F,2 E,2 D,C, B,,2 | C,2 G,,2 A,, z2 z | %157
 z2 z/ C,/B,,/A,,/ G,,2 z2 | z E,,F,,G,, !fermata!C,,4 |] %159
V:3
 x3 | x3 | x3 | x3 | x3 | x3 | x3 | x3 | x3 | x3 | x3 | x3 | x3 | x3 | x3 | x3 | x3 | x3 | x3 | %19
 x3 | x3 | x3 | x3 | x3 | x3 | x3 | x3 | x3 | x3 | x3 | x3 | x3 | x3 | x3 | x3 | x3 | x3 | x3 | %38
 x3 | x3 | x3 | x3 | x3 | x3 | x3 | x3 | x3 | x3 | x3 | x3 | x3 | x3 | x3 | x3 | x3 | x3 | x3 | %57
 x3 | x3 | x3 | x3 | x3 | x3 | x3 | x3 | x3 | x3 | x3 | x3 | x3 | x3 | x3 | x3 | x3 | x3 | x3 | %76
 x3 | x3 | x3 | x3 | x3 | x3 | x3 | x3 | x3 | x3 | x3 | x3 | x3 | x3 | x3 | x3 | x3 | x3 | x3 | %95
 x3 | x3 | x3 | x3 | x3 | x3 | x3 | G,,3 | C,3 |[M:4/4] x8 | x8 | x8 | x8 | x8 | x8 | x8 | x8 | %112
 x8 | x8 | x8 | G,2 z D/B,/ G,2 z G,/E,/ | C,2 D,,E, F,G,A,A,, | D,,2 z D, G,/E,/D,/E,/ CA, | x8 | %119
 x8 | x8 | x8 | x8 | x8 | F,,C, ^^F,,B,, E,,A,, G,,C, | B,,4 E,2 z2 | x8 | %127
 z2 z/ G,,/A,,/B,,/ C,2- C,/D,/E,/^^F,/ | x8 | x8 | x8 | x8 | x8 | x8 | %134
 C, z2 C,/A,,/ F,, z2 F,/D,/ | B,, z2 B,,/G,,/ E,, z2 E,/^^C,/ | A,, z2 A,,/F,,/ D,, z2 D,/B,,/ | %137
 G,, z2 G,,/E,,/ C,,2 z2 | x8 | x8 | x8 | x8 | x8 | x8 | x8 | x8 | x8 | x8 | x8 | x8 | x8 | x8 | %152
 x8 | x8 | x8 | x8 | x8 | x8 | x8 |] %159
V:4
 x3 | x3 | x3 | x3 | x3 | x3 | x3 | x3 | x3 | x3 | x3 | x3 | x3 | x3 | x3 | x3 | x3 | x3 | x3 | %19
 x3 | x3 | x3 | x3 | x3 | x3 | x3 | x3 | x3 | x3 | x3 | x3 | x3 | x3 | x3 | x3 | x3 | x3 | x3 | %38
 x3 | x3 | x3 | x3 | x3 | x3 | x3 | x3 | x3 | x3 | x3 | x3 | x3 | x3 | x3 | x3 | x3 | x3 | x3 | %57
 x3 | x3 | x3 | x3 | x3 | x3 | x3 | x3 | x3 | x3 | x3 | x3 | x3 | x3 | x3 | x3 | x3 | x3 | x3 | %76
 x3 | x3 | x3 | x3 | x3 | x3 | x3 | x3 | x3 | x3 | x3 | x3 | x3 | x3 | x3 | x3 | x3 | x3 | x3 | %95
 x3 | x3 | x3 | x3 | x3 | x3 | x3 | x3 | x3 |[M:4/4] x8 | x8 | z2 z C E/D/C/D/ BG | %107
 DC/B,/ CA[I:staff +1] B,[I:staff -1]G[I:staff +1] A,[I:staff -1]^^F | %108
[I:staff +1] G,[I:staff -1]G/^^F/ G/A/B/G/ c/B/A/B/ c/B/A/G/ | A2- A/G/F/A/ G/F/E/G/ F/E/F/D/ | %110
 E2 z G c3 c/A/ | D2 z ^^F B3 B/G/ | C2 z E A2- A/c/d/A/ | B2 z G- G/^^F/E/F/ G/^F/E/D/ | %114
 E2 E/D/C/E/ D/C/B,/D/ C/B,/C/A,/ | x8 | x8 | x8 | x8 | z2 z E A2 A/c/d/A/ | B z2 D G2 G/B/c/G/ | %121
 A z2 C ^^F2- F/A/B/F/ | G2 z B, C/B,/A,/B,/ GE | %123
 B,[I:staff +1]A,/G,/ A,[I:staff -1]^^F[I:staff +1] G,[I:staff -1]E[I:staff +1] ^^F,[I:staff -1]^^D | %124
 x8 | x8 | x8 | x8 | z2 B4 A2- | AG ^^FA D/ z2 z/[I:staff +1] G, | %130
 A,/G,/F,/G,/[I:staff -1] EC[I:staff +1] G,F,/E,/ F,[I:staff -1]D | %131
[I:staff +1] E,[I:staff -1]C[I:staff +1] D,[I:staff -1]B, C2 z g/e/ | c2 z c/A/ F2 z c | %133
 B2 A2 G z2 z | x8 | x8 | x8 | x8 | x8 | x8 | x8 | x8 | x8 | x8 | x8 | x8 | x8 | %147
 z2 z C/D/ E/D/C/D/ BG | DC/B,/ CA[I:staff +1] B,[I:staff -1]G[I:staff +1] A,[I:staff -1]^^F | %149
[I:staff +1] G,[I:staff -1]G/F/ G/A/B/G/ c/B/A/B/ c/B/A/G/ | A2- A/G/F/A/ G/F/E/G/ F/E/F/D/ | %151
 E4- EC FD | F3 F/D/[I:staff +1] G,2[I:staff -1] z[I:staff +1] B, | %153
[I:staff -1] E3 E/^^C/[I:staff +1] F,2[I:staff -1] z[I:staff +1] A, | %154
[I:staff -1] D2 D/F/G/D/ E2 z[I:staff +1] C- | C/B,/A,/B,/ C/B,/A,/G,/ A,2- A,/G,/F,/G,/ | %156
 G,/F,/E,/G,/ F,/E,/D,/F,/ E,/G,/A,/B,/ C/B,/A,/G,/ | %157
 ^^F,/G,/A,/^F,/ D,2- D,/D,/E,/F,/ G,/A,/B,/G,/ |[I:staff -1] C2 [FA][FG] [CEG]4 |] %159

